src/dark/hiso font dark_h.svg

<svg xmlns="http://www.w3.org/2000/svg" width="90" height="126" viewBox="0 0 90 126"><path fill="#000101" d="M33 7.5v36l-33-16.5v72l36 18v-68.65l32.65 16.33-32.65 16.32 36 18v-72l-39-19.5zm0 104.65l-30-15v-65.3l30 15v65.3zm36-50.65l-33-16.5v-32.65l33 16.5v32.65z"/></svg>

<svg xmlns="http://www.w3.org/2000/svg" width="90" height="126"><path fill="#000101" d="M33 7.5v36L0 27v72l36 18V48.35l32.65 16.33L36 81l36 18V27L33 7.5zm0 104.65l-30-15v-65.3l30 15v65.3zM69 61.5L36 45V12.35l33 16.5V61.5z"/></svg>
